build/img/sprites/sprite.svg

<svg>
	<symbol id="caretDown">
	<path d="M12.5194 6.35378L7.8319 11.3538C7.78837 11.4003 7.73667 11.4372 7.67976 11.4623C7.62286 11.4875 7.56186 11.5004 7.50026 11.5004C7.43866 11.5004 7.37766 11.4875 7.32076 11.4623C7.26385 11.4372 7.21215 11.4003 7.16862 11.3538L2.48112 6.35378C2.39316 6.25996 2.34375 6.13272 2.34375 6.00003C2.34375 5.86735 2.39316 5.7401 2.48112 5.64628C2.56908 5.55246 2.68837 5.49976 2.81276 5.49976C2.93715 5.49976 3.05644 5.55246 3.1444 5.64628L7.50026 10.2932L11.8561 5.64628C11.8997 5.59983 11.9514 5.56298 12.0083 5.53784C12.0652 5.5127 12.1262 5.49976 12.1878 5.49976C12.2494 5.49976 12.3103 5.5127 12.3672 5.53784C12.4241 5.56298 12.4759 5.59983 12.5194 5.64628C12.563 5.69274 12.5975 5.74789 12.6211 5.80859C12.6446 5.86928 12.6568 5.93434 12.6568 6.00003C12.6568 6.06573 12.6446 6.13079 12.6211 6.19148C12.5975 6.25218 12.563 6.30733 12.5194 6.35378Z" fill="black"/>
	</symbol>
</svg>

<svg><symbol id="caretDown"><path d="M12.52 6.354l-4.688 5a.467.467 0 01-.332.146.443.443 0 01-.331-.146l-4.688-5A.518.518 0 012.344 6c0-.133.05-.26.137-.354a.455.455 0 01.332-.146c.124 0 .243.052.331.146L7.5 10.293l4.356-4.647a.469.469 0 01.332-.146.443.443 0 01.331.146.504.504 0 01.138.354.53.53 0 01-.138.354z"/></symbol></svg>
